client/public/assets/icons/custom/custom111.svg

<?xml version="1.0" encoding="UTF-8" standalone="no"?>
<svg width="100px" height="100px" viewBox="0 0 100 100" version="1.1" xmlns="http://www.w3.org/2000/svg" xmlns:xlink="http://www.w3.org/1999/xlink">
    <g stroke="none" stroke-width="1" fill="none" fill-rule="evenodd">
        <path d="M53.3733333,45.0533333 C53.3133333,45.0533333 53.28,45.0533333 53.2533333,44.9933333 C50.9466667,44 47.5533333,41.3333333 42.5133333,40.4266667 C43.8,39.0933333 44.7933333,36.92 45.78,34.34 C46.3533333,32.8666667 46.26,31.6066667 46.26,29.8066667 C46.26,28.4733333 46.5,26.36 46.1666667,25.1866667 C45.06,21.1866667 42.2666667,20.1133333 38.9666667,20.1133333 C35.6666667,20.1133333 32.8466667,21.2266667 31.7333333,25.1866667 C31.4066667,26.3533333 31.6733333,28.4866667 31.6733333,29.8066667 C31.6733333,31.6066667 31.58,32.8666667 32.1533333,34.3666667 C33.1733333,36.92 34.1533333,39.08 35.3933333,40.4533333 C30.4133333,41.3866667 27.02,43.9933333 24.7266667,44.9866667 C20.0466667,47.12 20,49.4 20,49.4 L20,56.9933333 L43.6533333,56.9933333 C45.180205,51.8810119 48.6770373,47.5855203 53.3733333,45.0533333 L53.3733333,45.0533333 Z" id="db037cde-efef-424e-b3cd-53f109e2dfbb" fill="#FFFFFF"></path>
        <path d="M62.8266667,70.46 C58.540732,70.4599747 55.0649392,66.9881236 55.0600508,62.7021917 C55.0551624,58.4162598 58.5230264,54.936489 62.8089499,54.926687 C67.0948734,54.916885 70.5786177,58.3807573 70.5933333,62.6666667 C70.5986444,64.7305912 69.782931,66.7118993 68.3260144,68.1738181 C66.8690978,69.635737 64.8905973,70.4582367 62.8266667,70.46 L62.8266667,70.46 Z M80,64.5466667 L80,60.6666667 L79.46,60.4866667 L75.26,59.1533333 L74.1533333,56.4866667 L76.28,51.96 L73.52,49.2 L73.0066667,49.4666667 L69.1066667,51.4666667 L66.44,50.3533333 L64.76,45.6466667 L60.8133333,45.6466667 L60.6666667,46.1333333 L59.2866667,50.3 L56.62,51.4133333 L52,49.28 L49.2666667,52.04 L49.5333333,52.5533333 L51.5333333,56.48 L50.42,59.1466667 L45.7133333,60.8266667 L45.7133333,64.7266667 L46.2533333,64.9066667 L50.4266667,66.2866667 L51.54,68.9533333 L49.3333333,73.5533333 L52.0933333,76.3133333 L52.6,76.0466667 L56.5333333,74.0466667 L59.2,75.16 L60.88,79.8666667 L64.78,79.8666667 L64.96,79.3266667 L66.34,75.16 L69.0066667,74.0466667 L73.54,76.1733333 L76.3,73.4133333 L76.0333333,72.9066667 L74.0333333,69.0066667 L75.14,66.34 L80,64.5466667 L80,64.5466667 Z" id="0352dca9-3cda-4c90-95e1-2b086d4d08e5" fill="#FFFFFF"></path>
    </g>
</svg>

<?xml version="1.0"?><svg width="100" height="100" viewBox="0 0 100 100" xmlns="http://www.w3.org/2000/svg"><g fill="#fff"><path d="m53.4 45.1c-0.1 0-0.1 0-0.1-0.1-2.4-1-5.7-3.7-10.8-4.6 1.3-1.3 2.3-3.5 3.3-6.1 0.6-1.4 0.5-2.7 0.5-4.5 0-1.3 0.2-3.4-0.1-4.6-1.1-4-3.9-5.1-7.2-5.1-3.3 0-6.2 1.1-7.3 5.1-0.3 1.2 0 3.3 0 4.6 0 1.8-0.1 3.1 0.5 4.6 1 2.5 2 4.7 3.2 6.1-5 0.9-8.4 3.5-10.7 4.5-4.7 2.1-4.7 4.4-4.7 4.4v7.6h23.7c1.5-5.1 5-9.4 9.7-11.9z"></path><path d="m62.8 70.5c-4.3 0-7.7-3.5-7.7-7.8 0-4.3 3.4-7.8 7.7-7.8 4.3 0 7.8 3.5 7.8 7.8 0 2-0.8 4-2.3 5.5-1.4 1.4-3.4 2.3-5.5 2.3z m17.2-6v-3.8l-0.5-0.2-4.2-1.3-1.1-2.7 2.1-4.5-2.8-2.8-0.5 0.3-3.9 2-2.7-1.1-1.6-4.8h-4l-0.1 0.5-1.4 4.2-2.7 1.1-4.6-2.1-2.7 2.7 0.2 0.6 2 3.9-1.1 2.6-4.7 1.7v3.9l0.6 0.2 4.1 1.4 1.1 2.7-2.2 4.6 2.8 2.7 0.5-0.3 3.9-2 2.7 1.2 1.7 4.7h3.9l0.2-0.6 1.3-4.1 2.7-1.2 4.5 2.2 2.8-2.8-0.3-0.5-2-3.9 1.1-2.7 4.9-1.8z"></path></g></svg>
